X: 42738
T: White Cockade, The
R: polka
M: 2/4
K: Gmajor
|:G/A/|B>B c/B/A/G/|BB Bg/e/|dB c/B/A/G/|BA AG/A/|
B>d c/B/A/G/|Bd gg/a/|b/a/g/f/ e/f/g/e/|dB B:|
|:B/c/|dB gB/c/|dd/e/ dB/c/|dB gf/g/|aA AG/A/|
B>d c/B/A/G/|Bd gg/a/|b/a/g/f/ e/f/g/e/|dB B:|

